svg/300/outlined/back_to_tab-fill.svg

<svg xmlns="http://www.w3.org/2000/svg" width="48" height="48" viewBox="0 -960 960 960"><path d="M362.694-485.076 145.385-702v174.307h-45.384v-252.306h252.306v45.384H177l218.309 217.309-32.615 32.23Zm-205 305.075q-23.529 0-40.611-17.082-17.082-17.082-17.082-40.611v-209.613h45.384v209.613q0 5.385 3.462 8.847 3.462 3.462 8.847 3.462h317.69v45.384h-317.69Zm656.921-264.615v-277.69q0-5.385-3.462-8.847-3.462-3.462-8.847-3.462H432.693v-45.384h369.613q23.529 0 40.611 17.082 17.082 17.082 17.082 40.611v277.69h-45.384Zm45.384 73.078v191.537H548.462v-191.537h311.537Z"/></svg>

<svg xmlns="http://www.w3.org/2000/svg" width="48" height="48" viewBox="0 -960 960 960"><path d="M362.69-485.08 145.39-702v174.31H100V-780h252.31v45.39H177l218.31 217.3-32.62 32.23ZM157.69-180q-23.53 0-40.61-17.08T100-237.69v-209.62h45.39v209.62q0 5.38 3.46 8.84t8.84 3.46h317.69V-180H157.69Zm656.92-264.62v-277.69q0-5.38-3.46-8.84t-8.84-3.46H432.69V-780h369.62q23.53 0 40.61 17.08T860-722.31v277.69h-45.39ZM860-371.54V-180H548.46v-191.54H860Z"/></svg>
